X:1
T:Le dur traveil
T:Le dur traveil
T:Adrian Willaert
C:Adrian Willaert
%%score [ 1 [ 2 3 ] 4 ]
L:1/8
Q:1/4=76
M:2/2
K:F
V:1 treble nm="Superius" snm="S"
V:2 treble-8 nm="Tenor 1" snm="T 1"
V:3 treble-8 nm="Tenor 2" snm="T 2"
V:4 bass nm="Bassus" snm="B"
V:1
 A8 | B4 G4 | A2 A2 c3 B | A2 G2 F2 F2 | E8 | z4 c4 | B2 A2 G3 A | B2 A2 c2 B2- | BA A4 G2 | %9
w: Le|dur tra-|veil où mon _|_ cueur est con-|fit,|con-|traint l'es- prit d'a-|voir des maulx as-||
 A2 F2 E2 F2 | F2 E2 D3 E | F8 | z8 | z2 c4 B2 | A2 G3 A B2- | B2 B2 A3 G | F2 E2 F2 D2 | %17
w: sez, d'a- voir des|maulx _ _ as-|sez,||con- traint|l'es- prit d'a- voir|_ d'a- voir _|_ des maulx as-|
 E2 E3 F G2 | C2 C2 D4 | z2 D4 F2- | F2 E4 G2- | G2 G2 F2 D2 | A6 A2 | G2 G2 B4- | B2 B2 A2 A2 | %25
w: sez, [des _ _|maulx as- sez,]|mais le|_ po- voir|_ du tres puis-|sant souf-|fit d'y pour-|* veoir et les|
 A2 A2 G2 G2 | E2 G2 A2 F2- | F2 E2 D4 | E2 E2 E2 E2 | F2 F2 D2 D2 | E4 C4 | D4 z2 D2- | %32
w: ren- dre cas- *|||sez, mais le pou-|voir du tres puis-|sant souf-|fit, mais|
 D2 F4 E2- | E2 G4 G2 | F2 D2 A4- | A2 A2 G2 G2 | B6 B2 | A6 A2 | A2 A2 G2 G2 | E2 E2 E2 G2 | %40
w: _ le po-|* voir du|tres puis- sant|_ souf- fit d'y|pour- veoir|et les|ren- dre cas- sez,|et les ren- dre|
 D2 F3 E/D/ E2 | F8 |] %42
w: cas- * * * *|sez.|
V:2
 f8 | d4 e4 | f4 z2 c2 | c2 G2 A2 A2 | c4 c4 | F2 G2 A2 c2 | d2 f3 e/d/ e2 | f2 f4 d2- | %8
w: Le|dur tra-|veil où|mon cueur est con-|fit, con-|traint l'es- prit,- con-|traint l'es- * * prit|d'a- voir des|
 d2 A2 B2 c2- | c2 A2 z2 d2 | c2 c2 B3 c | d2 d4 c2 | B2 A4 G2 | A2 A2 A2 d2 | c2 _e4 d2- | %15
w: _ maulx as- *|* sez, con-|traint l'es- prit d'a-|voir des maulx|as- * *|sez, d'a- voir des|maulx as- sez,|
 d2 d2 c2 c2 | d2 c2 A2 B2 | c8 | z4 F4 | B4 A4 | c2 c2 c2 G2 | G2 B2 A2 A2 | A2 d2 c3 d | %23
w: _ d'a- voir des|maulx as- * *|sez,|mais|le po-|voir du tres puis-|sant souf- fit d'y|pour- veoir et _|
 e2 e2 f2 d2 | g2 g2 c2 c2 | f3 e d2 d2 | c2 c2 c2 d2 |"^-natural""^-natural" A2 c3 B/A/ B2 | %28
w: _ les ren- *|dre cas- sez, d'y|pour- * * veoir|et les ren- dre|cas- * * * *|
 c4 z2 c2 | A4 B4 | G4 z4 | F4 B4 | A4 c2 c2 | c2 G2 G2 B2 | A2 A2 A2 d2 | c3 d e2 e2 | %36
w: sez, mais|le po-|voir,|mais le|po- voir du|tres puis- sant souf-|fit d'y pour- veoir|et _ _ les|
 f2 d2 g2 g2 | c4 c4 | f3 e d2 d2 | c2 c2 c2 d2- | dc/B/ c2 c2 c2 | A8 |] %42
w: ren- * dre cas-|sez, d'y|pour- * * veoir|et les ren- *|* * * * dre cas-|sez.|
V:3
 c6 d2- | d2 A4 c2- | c2 c2 A4 | A2 c4 F2 | G2 G4 A2 | B2 c4 BA | G2 F2 c2 c2 | d3 c/B/ A2 B2 | %8
w: Le dur|_ tra- veil|_ où mon|cueur est con-|fit, con- traint|l'es- prit d'a- *|voir des maulx as-||
 F4 z4 | z2 c4 B2 | A2 G3 A B2- | B2 A2 A3 G | F2 E2 F2 D2 | E2 E2 F3 G | A2 c2 B3 A | G2 F4 A2- | %16
w: sez,|con- traint|l'es- prit _ _|_ d'a- voir _|_ des maulx as-|sez, d'a- voir _|_ des maulx _|_ as- sez,|
 A2 A2 A2 G2 | G2 G4 E2- | E2 F4 D2- | D2 G2 F2 D2 | A2 A2 GFED | E2 D2 F4- | F2 F2 E2 E2 | %23
w: _ d'a- voir des|maulx as- sez,|_ mais le|_ po- voir du|tres puis- sant _ _ _|_ souf- fit|_ d'y pour- veoir|
 E2 G2 D2 F2- | FE/D/ E2 F2 A2 | c2 d2 B2 B2 | G4 z4 | z4 z2 G2- | G2 G2 G2 A2 | A2 F4 G2- | %30
w: et les ren- *||* * dre cas-|sez,|et|_ les ren- dre|cas- sez, mais|
 G2 E4 F2- | F2 D4 G2 | F2 D2 A2 A2 | GFED E2 D2 | F6 F2 | E2 E2 E2 G2 | D2 F3 E/D/ E2 | %37
w: _ le po-|* voir du|tres puis- sant souf-|fit _ _ _ _ d'y|pour- veoir|et les ren- *|dre cas- * * sez,|
 F2 C2 FG AB | c2 d2 B3 A | G2 G2 A2 B2 | FG AB G2 G2 | F8 |] %42
w: d'y pour- veoir _ _ _|_ et les _|_ ren- * *|* * * * dre cas-|sez.|
V:4
 F,8 | G,4 C,4 | F,2 F,2 F,4- | F,2 E,2 F,2 D,2 | C,4 C,4 | D,2 E,2 F,4 | z8 | z8 | D,4 D,2 E,2 | %9
w: Le|dur tra-|veil où mon|_ cueur est con-|fit, con-|traint l'es- prit,|||con- traint l'es-|
 F,3 G, A,2 D,2 | F,2 C,2 G,4 | D,4 F,3 E, | D,2 C,2 B,,2 B,,2 | A,,4 z2 B,,2 | F,2 C,2 G,3 A, | %15
w: prit, _ _ con-|traint l'es- prit|d'a- voir _|_ des maulx as-|sez, con-|traint l'es- prit _|
 B,2 B,,2 F,3 E, | D,2 A,,2 D,2 G,,2 | C,4 C,4 | A,,4 B,,4 | G,,4 z4 | z4 C,4 | C,2 G,,2 D,4- | %22
w: _ d'a- voir _|_ des maulx as-|sez, mais|le po-|voir,|du|tres puis- sant|
 D,2 D,2 A,,3 B,, | C,2 C,2 B,,3 A,, | G,,2 G,,2 F,,2 F,2 | F,2 D,2 G,2 G,2 | C,2 E,2 F,2 D,2- | %27
w: _ souf- fit _|_ d'y pou- *|* veoir et les|ren- * dre ca-|sez, et les ren-|
 D,2 C,2 G,4 | C,2 C,2 C,2 A,,2 | D,2 D,2 B,,2 G,,2 | C,2 C,2 A,,4 | B,,4 G,,4 | z8 | %33
w: * dre cas-|sez, mais- le po-|voir du tres- _|_ puis- sant|souf- fit,||
 C,4 C,2 G,,2 | D,6 D,2 | A,,3 B,, C,2 C,2 | B,,3 A,, G,,2 G,,2 | F,,4 z2 F,2 | F,2 D,2 G,2 G,2 | %39
w: du tres puis-|sant souf-|fit _ _ d'y|pour _ _ veoir|et les|ren- * dre cas-|
 C,3 B,, A,,2 G,,2 | B,,2 F,,2 C,2 C,2 | F,,8 |] %42
w: sez, _ _ et|les ren- dre cas-|sez.|

